app/images/icon/icon-svg/dermatology.svg

<svg width="89" height="92" viewBox="0 0 89 92" fill="none" xmlns="http://www.w3.org/2000/svg">
  <mask id="path-1-outside-1_447_3533" maskUnits="userSpaceOnUse" x="0.149414" y="0.5" width="89"
    height="91" fill="black">
    <rect fill="white" x="0.149414" y="0.5" width="89" height="91" />
    <path
      d="M54.4494 37.2C61.5994 37.2 65.9994 26.75 65.9994 20.15C65.9994 14.65 63.2494 8.05 57.7494 8.05C50.5994 8.05 46.1994 18.5 46.1994 25.1C46.1994 30.6 48.9494 37.2 54.4494 37.2V37.2ZM33.5494 37.2C39.0494 37.2 41.7994 30.6 41.7994 25.1C41.7994 17.95 37.3994 7.5 30.2494 7.5C24.7494 7.5 21.9994 14.1 21.9994 19.6C21.4494 26.75 25.8494 37.2 33.5494 37.2V37.2ZM74.2494 31.7C67.0994 31.7 62.1494 41.6 62.1494 48.75C62.1494 53.7 64.3494 58.65 69.2994 58.65C76.4494 58.65 81.3994 48.75 81.3994 41.6C81.3994 36.65 78.6494 31.7 74.2494 31.7V31.7ZM26.3994 48.75C26.3994 41.6 20.8994 31.7 14.2994 31.7C9.34941 31.7 7.14941 36.65 7.14941 41.6C7.14941 48.75 12.6494 58.65 19.2494 58.65C24.1994 58.65 26.3994 53.7 26.3994 48.75ZM43.9994 47.65C32.9994 47.65 18.1494 65.25 18.1494 77.35C18.1494 82.85 21.9994 84.5 26.3994 84.5C32.9994 84.5 37.9494 80.1 43.9994 80.1C49.4994 80.1 54.4494 84.5 60.4994 84.5C64.8994 84.5 69.8494 83.4 69.8494 77.35C69.8494 65.25 54.9994 47.65 43.9994 47.65V47.65Z" />
  </mask>
  <path
    d="M54.4494 37.2C61.5994 37.2 65.9994 26.75 65.9994 20.15C65.9994 14.65 63.2494 8.05 57.7494 8.05C50.5994 8.05 46.1994 18.5 46.1994 25.1C46.1994 30.6 48.9494 37.2 54.4494 37.2V37.2ZM33.5494 37.2C39.0494 37.2 41.7994 30.6 41.7994 25.1C41.7994 17.95 37.3994 7.5 30.2494 7.5C24.7494 7.5 21.9994 14.1 21.9994 19.6C21.4494 26.75 25.8494 37.2 33.5494 37.2V37.2ZM74.2494 31.7C67.0994 31.7 62.1494 41.6 62.1494 48.75C62.1494 53.7 64.3494 58.65 69.2994 58.65C76.4494 58.65 81.3994 48.75 81.3994 41.6C81.3994 36.65 78.6494 31.7 74.2494 31.7V31.7ZM26.3994 48.75C26.3994 41.6 20.8994 31.7 14.2994 31.7C9.34941 31.7 7.14941 36.65 7.14941 41.6C7.14941 48.75 12.6494 58.65 19.2494 58.65C24.1994 58.65 26.3994 53.7 26.3994 48.75ZM43.9994 47.65C32.9994 47.65 18.1494 65.25 18.1494 77.35C18.1494 82.85 21.9994 84.5 26.3994 84.5C32.9994 84.5 37.9494 80.1 43.9994 80.1C49.4994 80.1 54.4494 84.5 60.4994 84.5C64.8994 84.5 69.8494 83.4 69.8494 77.35C69.8494 65.25 54.9994 47.65 43.9994 47.65V47.65Z"
    stroke="#FFC59E" stroke-width="14" stroke-linecap="round" stroke-linejoin="round"
    mask="url(#path-1-outside-1_447_3533)" />
</svg>

<svg width="89" height="92" fill="none" xmlns="http://www.w3.org/2000/svg"><mask id="a" maskUnits="userSpaceOnUse" x=".149" y=".5" width="89" height="91" fill="#000"><path fill="#fff" d="M.149.5h89v91h-89z"/><path d="M54.45 37.2C61.6 37.2 66 26.75 66 20.15c0-5.5-2.75-12.1-8.25-12.1C50.6 8.05 46.2 18.5 46.2 25.1c0 5.5 2.75 12.1 8.25 12.1zm-20.9 0c5.5 0 8.25-6.6 8.25-12.1 0-7.15-4.4-17.6-11.55-17.6-5.5 0-8.25 6.6-8.25 12.1-.55 7.15 3.85 17.6 11.55 17.6zm40.7-5.5c-7.15 0-12.1 9.9-12.1 17.05 0 4.95 2.2 9.9 7.15 9.9 7.15 0 12.1-9.9 12.1-17.05 0-4.95-2.75-9.9-7.15-9.9zM26.4 48.75c0-7.15-5.5-17.05-12.1-17.05-4.95 0-7.15 4.95-7.15 9.9 0 7.15 5.5 17.05 12.1 17.05 4.95 0 7.15-4.95 7.15-9.9zm17.6-1.1c-11 0-25.85 17.6-25.85 29.7 0 5.5 3.85 7.15 8.25 7.15 6.6 0 11.55-4.4 17.6-4.4 5.5 0 10.45 4.4 16.5 4.4 4.4 0 9.35-1.1 9.35-7.15 0-12.1-14.85-29.7-25.85-29.7z"/></mask><path d="M54.45 37.2C61.6 37.2 66 26.75 66 20.15c0-5.5-2.75-12.1-8.25-12.1C50.6 8.05 46.2 18.5 46.2 25.1c0 5.5 2.75 12.1 8.25 12.1v0zm-20.9 0c5.5 0 8.25-6.6 8.25-12.1 0-7.15-4.4-17.6-11.55-17.6-5.5 0-8.25 6.6-8.25 12.1-.55 7.15 3.85 17.6 11.55 17.6v0zm40.7-5.5c-7.15 0-12.1 9.9-12.1 17.05 0 4.95 2.2 9.9 7.15 9.9 7.15 0 12.1-9.9 12.1-17.05 0-4.95-2.75-9.9-7.15-9.9v0zM26.4 48.75c0-7.15-5.5-17.05-12.1-17.05-4.95 0-7.15 4.95-7.15 9.9 0 7.15 5.5 17.05 12.1 17.05 4.95 0 7.15-4.95 7.15-9.9zm17.6-1.1c-11 0-25.85 17.6-25.85 29.7 0 5.5 3.85 7.15 8.25 7.15 6.6 0 11.55-4.4 17.6-4.4 5.5 0 10.45 4.4 16.5 4.4 4.4 0 9.35-1.1 9.35-7.15 0-12.1-14.85-29.7-25.85-29.7v0z" stroke="#FFC59E" stroke-width="14" stroke-linecap="round" stroke-linejoin="round" mask="url(#a)"/></svg>
